<?xml version="1.0" encoding="UTF-8"?>
<map version="1.11" tiledversion="1.12.2" orientation="orthogonal" renderorder="right-down" width="16" height="12" tilewidth="40" tileheight="40" infinite="0" nextlayerid="7" nextobjectid="17">
 <editorsettings>
  <export target="grand_fountain.lua" format="lua"/>
 </editorsettings>
 <properties>
  <property name="border" value="nil"/>
  <property name="inside" type="bool" value="true"/>
 </properties>
 <objectgroup color="#ff00ff" id="2" name="objects_floor">
  <object id="3" name="depthfountainfloor" x="240" y="280" width="160" height="200"/>
 </objectgroup>
 <objectgroup color="#ff00ff" id="3" name="objects_fountain">
  <object id="4" name="depthfountain" x="320" y="280"/>
 </objectgroup>
 <objectgroup color="#000000" id="5" name="markers">
  <object id="7" name="spawn" x="320" y="440">
   <point/>
  </object>
 </objectgroup>
 <objectgroup color="#00aa00" id="4" name="controllers">
  <object id="5" name="fountainshadow" x="0" y="0">
   <point/>
  </object>
 </objectgroup>
 <objectgroup color="#5500ff" id="6" name="collision">
  <object id="8" x="200" y="280" width="40" height="200"/>
  <object id="9" x="200" y="240" width="240" height="40"/>
  <object id="10" x="400" y="280" width="40" height="200"/>
 </objectgroup>
</map>
